X:72
T:Congress at Laceby,The. JGi.072
O:Tealby,Lincolnshire
M:2/4
L:1/8
Q:1/4=120
S:Joshua Gibbons MS,1823,Tealby,Lincs.
R:quick step
Z:VMP/R.Greig, 2009
K:C
ecec|AGG2|ecec|dgg2|ecec|AGGA|Bcde|c2c2:|
|:EGEG|FAFA|GfdB|ceg2|EGEG|FAFA|GfdB|c2c2:|

